img/bow.svg

<svg width="28" height="40" viewBox="0 0 28 40" fill="none" xmlns="http://www.w3.org/2000/svg">
<path d="M28 25.1118C28 21.2474 24.8396 18.7324 21.7832 16.3021C19.0755 14.1486 16.5184 12.1136 16.2152 9.31505C16.2034 8.94713 16.0892 4.49972 17.3124 0.775321C17.3436 0.679939 17.3501 0.578155 17.3312 0.47957C17.3123 0.380984 17.2687 0.288844 17.2044 0.211841C17.1401 0.134838 17.0573 0.0755085 16.9638 0.0394481C16.8703 0.00338769 16.7692 -0.00821527 16.67 0.00573339C15.8586 0.121107 15.1092 0.505545 14.5413 1.09767C14.3392 1.30861 14.1569 1.53788 13.997 1.78254C13.8375 1.53694 13.6561 1.30635 13.455 1.09362C12.8875 0.504044 12.1395 0.12158 11.33 0.00708361C11.2308 -0.00686506 11.1297 0.00473791 11.0362 0.0407983C10.9427 0.0768587 10.8599 0.136188 10.7956 0.213191C10.7313 0.290195 10.6877 0.382334 10.6688 0.48092C10.6499 0.579506 10.6564 0.681289 10.6876 0.776671C11.9108 4.50276 11.7966 8.95017 11.7848 9.3164C11.4816 12.1136 8.92449 14.1486 6.2168 16.3034C3.16044 18.7337 0 21.2477 0 25.1132C0 31.9733 5.37127 37.0337 12.9197 37.4759C12.6817 38.0258 12.382 38.5467 12.0263 39.0286C11.9304 39.1446 11.8823 39.293 11.8919 39.4435C11.9016 39.5939 11.9682 39.7349 12.0782 39.8377C12.1881 39.9405 12.3332 39.9974 12.4836 39.9966C12.634 39.9959 12.7784 39.9375 12.8873 39.8336C12.9092 39.8126 12.9295 39.7901 12.948 39.7661C12.9938 39.7067 13.1838 39.4518 13.4105 39.0866V39.4093C13.4105 39.566 13.4726 39.7162 13.5832 39.827C13.6937 39.9378 13.8437 40 14 40C14.1563 40 14.3063 39.9378 14.4168 39.827C14.5274 39.7162 14.5895 39.566 14.5895 39.4093V39.0866C14.8152 39.4518 15.0062 39.7067 15.052 39.7661C15.0705 39.7901 15.0908 39.8126 15.1127 39.8336L15.116 39.837C15.172 39.8903 15.238 39.9321 15.3102 39.9599C15.3823 39.9876 15.4592 40.0008 15.5365 39.9988C15.6138 39.9967 15.6899 39.9794 15.7604 39.9478C15.831 39.9162 15.8946 39.871 15.9477 39.8147C16.0458 39.7111 16.1032 39.5755 16.1094 39.4328C16.1156 39.2902 16.0701 39.1501 15.9814 39.0384C15.6221 38.553 15.3196 38.0279 15.0796 37.4735C22.6291 37.0324 28 31.972 28 25.1118ZM14.0081 36.3276H14H13.9919C12.8628 36.3094 11.3051 32.4135 11.3051 25.1118C11.3051 21.622 12.0381 19.2417 12.7469 16.94C13.312 15.256 13.7313 13.5262 14 11.77C14.2687 13.5262 14.688 15.256 15.2531 16.94C15.9605 19.2417 16.6949 21.622 16.6949 25.1118C16.6949 32.4135 15.1372 36.3094 14.0081 36.3276ZM11.6204 16.5907C10.8857 18.9771 10.1261 21.4435 10.1261 25.1118C10.1261 29.4323 10.7146 33.7798 11.9859 35.9985C8.51925 34.8218 6.16795 30.6029 6.16795 25.1118C6.16795 21.7381 7.93446 19.5006 9.80606 17.1321C10.8254 15.8414 11.8643 14.5243 12.5949 13.0074C12.3335 14.2711 11.9825 15.4144 11.6204 16.5907ZM16.0141 35.9992C17.2854 33.7805 17.8739 29.4344 17.8739 25.1125C17.8739 21.4442 17.1143 18.9778 16.3796 16.592C16.0175 15.415 15.6665 14.2718 15.4064 13.0081C16.1371 14.525 17.1759 15.8434 18.1953 17.1328C20.0655 19.5013 21.8334 21.7388 21.8334 25.1125C21.8321 30.6029 19.4807 34.8218 16.0141 35.9992ZM15.3811 1.92565C15.5264 1.77824 15.6878 1.64769 15.8622 1.53647C15.5759 2.66627 15.3677 3.81448 15.239 4.97295C15.0685 4.36538 14.8772 3.73857 14.6609 3.11446C14.6538 3.09421 14.6444 3.07598 14.6373 3.05573C14.8191 2.63927 15.0707 2.25706 15.3811 1.92565ZM12.6131 1.92093C13.0338 2.37496 13.3523 2.91425 13.5469 3.5023C14.1239 5.2271 14.5829 6.98931 14.9206 8.77667H12.9736C12.9896 6.33821 12.7089 3.90689 12.1378 1.53647C12.3103 1.64638 12.47 1.77534 12.6138 1.92093H12.6131ZM1.17902 25.1118C1.17902 21.8181 3.98205 19.5887 6.94981 17.2283C8.31461 16.2033 9.59375 15.0686 10.7745 13.8354C10.212 14.7099 9.55409 15.5457 8.88003 16.4007C6.96699 18.8235 4.98893 21.3287 4.98893 25.1132C4.98893 29.6099 6.47382 33.3343 8.86521 35.4918C4.21314 33.8598 1.17902 29.9873 1.17902 25.1118ZM19.1338 35.4905C21.5255 33.3329 23.0101 29.6085 23.0101 25.1118C23.0101 21.3274 21.032 18.8222 19.119 16.3993C18.4452 15.5457 17.787 14.7116 17.2244 13.834C18.4055 15.0678 19.685 16.2029 21.0502 17.2283C24.018 19.5887 26.821 21.8188 26.821 25.1118C26.821 29.9873 23.7869 33.8598 19.1348 35.4905H19.1338Z" fill="#FF7010"/>
</svg>

<svg width="28" height="40" fill="none" xmlns="http://www.w3.org/2000/svg"><path d="M28 25.112c0-3.865-3.16-6.38-6.217-8.81-2.707-2.153-5.265-4.188-5.568-6.987-.012-.368-.126-4.815 1.097-8.54a.593.593 0 0 0-.642-.77c-.811.116-1.56.5-2.129 1.093-.202.21-.384.44-.544.685a4.84 4.84 0 0 0-.542-.69A3.661 3.661 0 0 0 11.33.008a.589.589 0 0 0-.642.77c1.223 3.726 1.109 8.173 1.097 8.54-.303 2.797-2.86 4.832-5.568 6.986C3.16 18.733 0 21.248 0 25.113c0 6.86 5.371 11.92 12.92 12.363a7.895 7.895 0 0 1-.894 1.553.592.592 0 0 0 .458.968.589.589 0 0 0 .464-.23c.046-.06.236-.315.463-.68v.322a.591.591 0 0 0 1.006.418.591.591 0 0 0 .172-.418v-.322c.226.365.417.62.463.68a.607.607 0 0 0 .06.067l.004.003a.588.588 0 0 0 .993-.404.593.593 0 0 0-.128-.395 7.916 7.916 0 0 1-.901-1.564C22.63 37.032 28 31.972 28 25.111ZM14.008 36.328h-.016c-1.13-.019-2.687-3.915-2.687-11.216 0-3.49.733-5.87 1.442-8.172A30.978 30.978 0 0 0 14 11.77a30.978 30.978 0 0 0 1.253 5.17c.707 2.302 1.442 4.682 1.442 8.172 0 7.302-1.558 11.197-2.687 11.216ZM11.62 16.59c-.734 2.386-1.494 4.852-1.494 8.52 0 4.321.589 8.669 1.86 10.887-3.467-1.176-5.818-5.395-5.818-10.886 0-3.374 1.766-5.611 3.638-7.98 1.02-1.29 2.058-2.608 2.789-4.125-.261 1.264-.613 2.407-.975 3.584Zm4.394 19.408c1.271-2.218 1.86-6.565 1.86-10.887 0-3.668-.76-6.134-1.494-8.52-.363-1.177-.713-2.32-.974-3.584.731 1.517 1.77 2.835 2.79 4.125 1.87 2.368 3.637 4.606 3.637 7.98 0 5.49-2.352 9.709-5.819 10.886Zm-.633-34.073c.145-.148.307-.278.481-.39a25.412 25.412 0 0 0-.623 3.437 32.53 32.53 0 0 0-.578-1.859c-.007-.02-.017-.038-.024-.058.182-.417.434-.799.744-1.13Zm-2.768-.005c.42.454.74.993.934 1.581a40.08 40.08 0 0 1 1.374 5.275h-1.947a30.07 30.07 0 0 0-.836-7.24c.172.11.332.238.476.384ZM1.18 25.11c0-3.293 2.803-5.522 5.77-7.883a31.408 31.408 0 0 0 3.825-3.393c-.562.875-1.22 1.71-1.894 2.566-1.913 2.422-3.891 4.928-3.891 8.712 0 4.497 1.485 8.221 3.876 10.379-4.652-1.632-7.686-5.505-7.686-10.38Zm17.955 10.38c2.392-2.158 3.876-5.883 3.876-10.38 0-3.784-1.978-6.289-3.891-8.712-.674-.853-1.332-1.687-1.895-2.565a31.409 31.409 0 0 0 3.826 3.394c2.968 2.36 5.771 4.59 5.771 7.884 0 4.875-3.034 8.748-7.686 10.378h-.001Z" fill="#FF7010"/></svg>
